src/images/svg/trash.svg

<svg width="24" height="24" viewBox="0 0 24 24" xmlns="http://www.w3.org/2000/svg">
<g id="trash-01">
<path id="Icon" d="M16 6V5.2C16 4.0799 16 3.51984 15.782 3.09202C15.5903 2.71569 15.2843 2.40973 14.908 2.21799C14.4802 2 13.9201 2 12.8 2H11.2C10.0799 2 9.51984 2 9.09202 2.21799C8.71569 2.40973 8.40973 2.71569 8.21799 3.09202C8 3.51984 8 4.0799 8 5.2V6M10 11.5V16.5M14 11.5V16.5M3 6H21M19 6V17.2C19 18.8802 19 19.7202 18.673 20.362C18.3854 20.9265 17.9265 21.3854 17.362 21.673C16.7202 22 15.8802 22 14.2 22H9.8C8.11984 22 7.27976 22 6.63803 21.673C6.07354 21.3854 5.6146 20.9265 5.32698 20.362C5 19.7202 5 18.8802 5 17.2V6" stroke-width="2" stroke-linecap="round" stroke-linejoin="round"/>
</g>
</svg>

<svg xmlns="http://www.w3.org/2000/svg" width="24" height="24" fill="none"><path stroke="#F3F3F3" stroke-linecap="round" stroke-linejoin="round" stroke-width="2" d="M16 6v-.8c0-1.12 0-1.68-.218-2.108a2 2 0 0 0-.874-.874C14.48 2 13.92 2 12.8 2h-1.6c-1.12 0-1.68 0-2.108.218a2 2 0 0 0-.874.874C8 3.52 8 4.08 8 5.2V6m2 5.5v5m4-5v5M3 6h18m-2 0v11.2c0 1.68 0 2.52-.327 3.162a3 3 0 0 1-1.311 1.311C16.72 22 15.88 22 14.2 22H9.8c-1.68 0-2.52 0-3.162-.327a3 3 0 0 1-1.311-1.311C5 19.72 5 18.88 5 17.2V6"/></svg>
